X:396
T: ALLES KOMMT ZU SEINEM ENDE
N: B0469
O: Europa, Mitteleuropa, Deutschland, Schlesien
R: Liebes - Lied, Leid, Klage
M: 4/4
L: 1/8
K: D
dc | d2D2DdcB | A2G2F2
AA | A2BGF2GE | D4z2
dc | d2D2DdcB | A2G2F2
AA | A2BGF2GE | D4z2
CD | E3AA2GF | F2E2z2
CD | E3AA2GF | F2E2z2
dc | d2D2DdcB | A2G2F2
AA | A2BGF2GE | D4z2

